X:0043
T:The high way to Dublin.
M:6/8
L:1/8
Q:3/8=120
I: :: ::
Z:Jack Campin * www.campin.me.uk * 2009
K:A Mixolydian
g|fed cAc|ecA A2g|fed cAc|dBG G2
g|fed cAc|def gfe|agf gfe|dBG G2:|
B|A2a acA|acA A2B|A2a acA|dBG G2
B|A2a acA|acA acA|agf gfe|dBG G2:|

